X:233
T:It's Not What You Know
C:IIIrd Tyme Out - Singing On Streets of Gold
N:solo Wayne Benson - Transcribed by Philippe Colleu
R:bluegrass
L:1/8
Q:1/4=195
M:4/4
K:C
"(95 bpm)""A"z4 z^g/z/ aa | [a2e2] [^f2d2] {B}^cA ^FD | E^F AB/z/ ^ce c2 | "E"B^G/z/ ^FD EF Ac/z/ | 
"A"^cA ^FE AB =c^c | za2e ga {f}^fa | {f}"D"^fa2=f/z/ ed AB/z/ | "A"^ca2A ga ^de | 
"E"ge dc/z/ "A"^c[c2A2]A | G^F E2 DE D2 | {C}^CE =C/z/B, A,4 | 


